assets/icons/icon-menu/web/icon-menu.svg

<?xml version="1.0" encoding="UTF-8" standalone="no"?>
<svg width="48px" height="48px" viewBox="0 0 48 48" version="1.1" xmlns="http://www.w3.org/2000/svg" xmlns:xlink="http://www.w3.org/1999/xlink">
    <!-- Generator: Sketch 45.2 (43514) - http://www.bohemiancoding.com/sketch -->
    <title>icon-menu</title>
    <desc>Created with Sketch.</desc>
    <defs></defs>
    <g id="Symbols" stroke="none" stroke-width="1" fill="none" fill-rule="evenodd">
        <g id="icon-menu" fill="#2D2D2D">
            <path d="M14,19 C14,18.4477153 14.4386148,18 14.9987461,18 L34.0012539,18 C34.5528461,18 35,18.4438648 35,19 C35,19.5522847 34.5613852,20 34.0012539,20 L14.9987461,20 C14.4471539,20 14,19.5561352 14,19 Z M14,24 C14,23.4477153 14.4386148,23 14.9987461,23 L34.0012539,23 C34.5528461,23 35,23.4438648 35,24 C35,24.5522847 34.5613852,25 34.0012539,25 L14.9987461,25 C14.4471539,25 14,24.5561352 14,24 Z M14,29 C14,28.4477153 14.4386148,28 14.9987461,28 L34.0012539,28 C34.5528461,28 35,28.4438648 35,29 C35,29.5522847 34.5613852,30 34.0012539,30 L14.9987461,30 C14.4471539,30 14,29.5561352 14,29 Z"></path>
        </g>
    </g>
</svg>

<svg width="48" height="48" viewBox="0 0 48 48" xmlns="http://www.w3.org/2000/svg"><title>icon-menu</title><path d="M14 19c0-.552.439-1 .999-1H34c.552 0 .999.444.999 1 0 .552-.439 1-.999 1H15A.997.997 0 0 1 14 19zm0 5c0-.552.439-1 .999-1H34c.552 0 .999.444.999 1 0 .552-.439 1-.999 1H15A.997.997 0 0 1 14 24zm0 5c0-.552.439-1 .999-1H34c.552 0 .999.444.999 1 0 .552-.439 1-.999 1H15A.997.997 0 0 1 14 29z" fill="#2D2D2D" fill-rule="evenodd"/></svg>
